X:1
T:Title
%%score { ( 1 3 5 ) | ( 2 4 ) }
L:1/8
Q:1/4=100
M:4/4
K:Bb
V:1 treble nm="Grand Piano"
V:3 treble 
V:5 treble 
V:2 bass 
V:4 bass 
V:1
 [DF]2 [B,D]2 [DB]2 [DF]2 | [Fd]2 [DB]2 [DF]2 [DB]>[FA] | [EG]>[EG] [Ec]>[EB] (3AAA G>A | %3
w: J.~G.~Dailey * * *|||
 [DB]6 z2 | [DF]2 [B,D]2 [DB]2 [DF]2 | [Fd]2 [DB]2 [DF]2 [DB]>[FA] | %6
w: |||
 [EG]>[EG] [Ec]>[EB] (3AAA G>A | [DB]6 z2 |[M:1/4] F>F |[M:4/4] z4 B2 z2 | A6 z2 | z4 c2 z2 | %12
w: ||||||
 B6 z2 | d>[Fd] [Fd]>d d2 d>d | (3[Ge][Fd][Ec] (3[GB][FA][EG] [DF]2 [DF]>F | %15
w: |||
 G>G [Ec]>[EB] (3AAA G>A | [DB]6 z2 |] %17
w: ||
V:2
 [B,,B,]2 [B,,F,]2 [B,,B,]2 [B,,B,]2 | [B,,B,]2 [B,,B,]2 [B,,B,]2 [B,,B,]>[D,B,] | %2
 [E,B,]>[E,B,] [C,A,]>[C,B,] (3[F,CE][F,CE][F,CE] [F,CE]>[F,CE] | [B,,B,]6 z2 | %4
 [B,,B,]2 [B,,F,]2 [B,,B,]2 [B,,B,]2 | [B,,B,]2 [B,,B,]2 [B,,B,]2 [B,,B,]>[D,B,] | %6
 [E,B,]>[E,B,] [C,A,]>[C,B,] (3[F,CE][F,CE][F,CE] [F,CE]>[F,CE] | [B,,B,]6 z2 | %8
[M:1/4] [D,B,]>[F,C] |[M:4/4][K:treble] [DF]>[DF] [DF]>[DF] [DF]2[K:bass] (3[D,-B,][D,B,E][G,B,D] | %10
 [CF]2 E2 E2 [F,A,]>[K:treble][F,CF] | [EF]>[EF] [EF]>[EF] [DE]2 (3[F,EF][G,EF][A,EF] | %12
 [B,DF]2[K:bass] (3B,,D,F, [B,D]2 [D,D]>[K:treble][F,CF] | %13
 [B,F]>[K:bass][B,,B,] [D,B,]>[K:treble][F,B,F] [B,F]2 [B,F]>[B,F] | %14
 (3[E,B,][E,B,][E,B,] (3[E,B,][E,B,][E,B,] [B,,B,]2 [B,,B,]>[D,B,] | %15
 [E,B,E]>[E,B,E] [C,A,]>[C,B,] (3[F,CE][F,CE][F,CE] [F,CE]>[F,CE] | [B,,B,]6 z2 |] %17
V:3
 x8 | x8 | x8 | x8 | x8 | x8 | x8 | x8 |[M:1/4] x2 |[M:4/4] B>B B>B z z/ F,/ (3[Fd]cB | %10
 z2 (3FFF F2 F>A | c>c c>c z z/ F,/ (3edc | z2 F2 z4 | x8 | x8 | x8 | x8 |] %17
V:4
 x8 | x8 | x8 | x8 | x8 | x8 | x8 | x8 |[M:1/4] x2 |[M:4/4][K:treble] B,6[K:bass] z2 | %10
 F,6 z2[K:treble] | A,6 z2 | x2[K:bass] x11/2[K:treble] x/ | x3/2[K:bass] x2[K:treble] x9/2 | x8 | %15
 x8 | x8 |] %17
V:5
 x8 | x8 | x8 | x8 | x8 | x8 | x8 | x8 |[M:1/4] x2 |[M:4/4] x8 | x8 | x8 | z2 (3DDD FE F>B | x8 | %14
 x8 | x8 | x8 |] %17

